X: 25719
T: Mary Devlin's
R: reel
M: 4/4
K: Bminor
|:ze|.f2 (3.B.B.B .fBA.B|z BBB AFDF|EBBA BBBd|BBBd Bde=f|
.f2 (3.B.B.B .fBA.B|zBAB AFDF|EBBB EBBB|ABde B2:|
|:fa|b2a2 f3 f|eeef d3 c|dBBB ABde|fffa efaf|
b2a2 fffg|edef hd3c|dBBB ABde|fBBA B2:|

